packages/react-icons/icons/open-in-new-tab.svg

<svg width="24" height="25" viewBox="0 0 24 25" xmlns="http://www.w3.org/2000/svg"><path fill-rule="evenodd" clip-rule="evenodd" d="M15.0276 3.50005C14.5305 3.50005 14.1276 3.903 14.1276 4.40006C14.1276 4.89711 14.5305 5.30005 15.0276 5.30005L17.9273 5.30002L12.1542 11.073C11.8028 11.4245 11.8028 11.9944 12.1542 12.3458C12.5057 12.6973 13.0755 12.6973 13.427 12.3458L19.2001 6.57279L19.2001 9.47253C19.2001 9.96959 19.603 10.3725 20.1001 10.3725C20.5971 10.3725 21.0001 9.96959 21.0001 9.47253L21.0001 4.4C21.0001 4.1613 20.9052 3.93238 20.7365 3.7636C20.5677 3.59482 20.3388 3.5 20.1001 3.5L15.0276 3.50005ZM11.0899 3.5C11.5925 3.5 12 3.90747 12 4.41011C12 4.91275 11.5925 5.32022 11.0899 5.32022H5.93258C5.31825 5.32022 4.82022 5.81825 4.82022 6.43258V18.5674C4.82022 19.1818 5.31825 19.6798 5.93258 19.6798H18.0674C18.6818 19.6798 19.1798 19.1818 19.1798 18.5674V13.3785C19.1798 12.8759 19.5872 12.4684 20.0899 12.4684C20.5925 12.4684 21 12.8759 21 13.3785V18.5674C21 20.187 19.687 21.5 18.0674 21.5H5.93258C4.31296 21.5 3 20.187 3 18.5674V6.43258C3 4.81296 4.31296 3.5 5.93258 3.5H11.0899Z"/></svg>

<svg xmlns="http://www.w3.org/2000/svg" width="24" height="25"><path fill-rule="evenodd" d="M15.028 3.5a.9.9 0 1 0 0 1.8h2.9l-5.774 5.773a.9.9 0 0 0 1.273 1.273L19.2 6.573v2.9a.9.9 0 1 0 1.8 0V4.4a.9.9 0 0 0-.9-.9h-5.072Zm-3.938 0a.91.91 0 0 1 0 1.82H5.933c-.615 0-1.113.498-1.113 1.113v12.134c0 .615.498 1.113 1.113 1.113h12.134c.615 0 1.113-.498 1.113-1.113V13.38a.91.91 0 1 1 1.82 0v5.188a2.933 2.933 0 0 1-2.933 2.933H5.933A2.933 2.933 0 0 1 3 18.567V6.433A2.933 2.933 0 0 1 5.933 3.5h5.157Z" clip-rule="evenodd"/></svg>
